icons/24/file.svg

<svg width="24" height="24" viewBox="0 0 24 24" xmlns="http://www.w3.org/2000/svg">
  <path fill-rule="evenodd" clip-rule="evenodd" d="M5.75 3.5C5.6837 3.5 5.62011 3.52634 5.57322 3.57322C5.52634 3.62011 5.5 3.6837 5.5 3.75V19.25C5.5 19.388 5.612 19.5 5.75 19.5H18.25C18.3163 19.5 18.3799 19.4737 18.4268 19.4268C18.4737 19.3799 18.5 19.3163 18.5 19.25V9H14.75C14.2859 9 13.8408 8.81563 13.5126 8.48744C13.1844 8.15925 13 7.71413 13 7.25V3.5H5.75ZM14.5 4.06V7.25C14.5 7.388 14.612 7.5 14.75 7.5H17.94L14.5 4.06ZM4 3.75C4 2.784 4.784 2 5.75 2H13.836C14.3 2 14.745 2.184 15.073 2.513L19.487 6.927C19.816 7.255 20 7.7 20 8.164V19.25C20 19.4798 19.9547 19.7074 19.8668 19.9197C19.7788 20.132 19.6499 20.3249 19.4874 20.4874C19.3249 20.6499 19.132 20.7788 18.9197 20.8668C18.7074 20.9547 18.4798 21 18.25 21H5.75C5.28587 21 4.84075 20.8156 4.51256 20.4874C4.18437 20.1592 4 19.7141 4 19.25V3.75Z"/>
</svg>

<svg width="24" height="24" viewBox="0 0 24 24" xmlns="http://www.w3.org/2000/svg">
  <path fill-rule="evenodd" clip-rule="evenodd" d="M5.75 3.5a.25.25 0 00-.25.25v15.5c0 .138.112.25.25.25h12.5a.25.25 0 00.25-.25V9h-3.75A1.75 1.75 0 0113 7.25V3.5H5.75zm8.75.56v3.19c0 .138.112.25.25.25h3.19L14.5 4.06zM4 3.75C4 2.784 4.784 2 5.75 2h8.086c.464 0 .909.184 1.237.513l4.414 4.414c.329.328.513.773.513 1.237V19.25A1.75 1.75 0 0118.25 21H5.75A1.75 1.75 0 014 19.25V3.75z"/>
</svg>
